X: 1957
T: Yalnız Bırakıp Gitme
C: Mısırlı Udî İbrahim Efendi
O: Turkey
F: http://compmusic.upf.edu/node/140
N: ussak--sarki--turkaksagi--yalniz_birakip--misirli_udi_ibrahim_efendi
N: makam= ussak
N: form= sarki
N: usul= turkaksagi = 5/8
M: 5/8
L: 1/16
K: C _2/4B   
Q: 1/4=102
%%MIDI tuningsystem comma53
A8 e8 e2d2 | (3d2c2d2 {d}(3e2e2d2d8z4  | \
w:  Yal nız   |  bı *  *  *  ra *  *  kıp   | 
c3BA4 B4c4 d4 | ABcd cBBAA12  | 
w:  git  |  me  *  *  *  bu  *  *  *  ak  | 
d8 c4B4 A4 | B4 c4d2ed cBAGA4  | B4c4 d2e2c2B2 A2G2 | 
w:  şam   |   |  yi ne  er  | 
d8ABcd cBBAA4  | A8 e8 e2d2 | (3d2c2d2 {d}(3e2e2d2d8z4  | 
w:  ken   SAZ  |  Yal nız   |  bı *  *  *  ra *  *  kıp   | 
c3BA4 B4c4 d4 | ABcd cBBAA12  | d8 c4B4 A4 | \
w:  git  |  me  *  *  *  bu  *  *  *  ak  |  şam   | 
B4 c4d2ed cBAGA4  | 
w:   | 
B4c4 d2e2c2B2 A2G2 | d8ABcd efgef4  | \
w:  yi ne  er  |  ken   SAZ  | 
f6e2 f2e2f2e2 f2e2 | 
w:  Ök *  süz   | 
f2e2 f2g2agfe d4z4  | e6d2 e8 e2d2 | \
w:  sa *  nı *  rım   |  ken  | 
d2e2 e2d2d2{f}ed c4BAc2  | 
w:  di *  mi  *  ben   | 
d4c4 d4c4 B4 | c2d2 c2BAA8G4  | B4c4 d4(3f2e2d2 (3c2B2A2 | 
w:  sen  |   |  siz_ i çer  | 
A8ABcd efgef4  | f6e2 f2e2f2e2 f2e2 | \
w:  ken   SAZ  |  Ök *  süz   | 
f2e2 f2g2agfe d4z4  | 
w:  sa *  nı *  rım   | 
e6d2 e8 e2d2 | d2e2 e2d2d2{f}ed c4BAc2  | \
w:  ken  |  di *  mi  *  ben   | 
d4c4 d4c4 B4 | 
w:  sen  | 
c2d2 c2BAA8G4  | B4c4 d4(3f2e2d2 (3c2B2A2 | \
w:   |  siz_ i çer  | 
A8(3A2^c2B2 (3A2B2c2d4  | 
w:  ken   SAZ  | 
d8 d4^c4 _7/8B4 | ^c4 d4e8a4  | g2f2e2d2 ^c2_7/8B2A2B2 c2d2 | \
w:  En  neş  |  e li  dem  |  ler   | 
^c2_7/8B2 B2A2A8z4  | 
w:  bu  *  ge *  ce   | 
d8 c4B4 A4 | B4 c4d2{f}ed cBAGA4  | B4c4 d2e2c2B2 A2G2 | 
w:  saz  |   |  la  ge çer  | 
d8ABcd efgef4  | f6e2 f2e2f2e2 f2e2 | \
w:  ken   SAZ  |  Ök *  süz   | 
f2e2 f2g2agfe d4z4  | 
w:  sa *  nı *  rım   | 
e6d2 e8 e2d2 | d2e2 e2d2d2{f}ed c4BAc2  | \
w:  ken  |  di *  mi  *  ben   | 
d4c4 d4c4 B4 | 
w:  sen  | 
c2d2 c2BAA8G4  | B4c4 d4(3f2e2d2 (3c2B2A2 | \
w:   |  siz_ i çer  | 
A8ABcd efgef4  | 
w:  ken   SAZ  | 
f6e2 f2e2f2e2 f2e2 | f2e2 f2g2agfe d4z4  | \
w:  Ök *  süz   |  sa *  nı *  rım   | 
e6d2 e8 e2d2 | 
w:  ken  | 
d2e2 e2d2d2{f}ed c4BAc2  | d4c4 d4c4 B4 | \
w:  di *  mi  *  ben   |  sen  | 
c2d2 c2BAA8G4  | 
w:   | 
B4c4 d4(3f2e2d2 (3c2B2A2 | A8|
w:  siz_ i çer  |  ken    | 


